images/phone.svg

<svg width="24" height="25" viewBox="0 0 24 25" fill="none" xmlns="http://www.w3.org/2000/svg">
<path d="M11.0879 15.7816L9.3119 17.5576C8.9375 17.932 8.3423 17.932 7.9583 17.5672C7.8527 17.4616 7.7471 17.3656 7.6415 17.26C6.6527 16.2616 5.7599 15.2152 4.9631 14.1208C4.1759 13.0264 3.5423 11.932 3.0815 10.8472C2.6303 9.75281 2.3999 8.70641 2.3999 7.70801C2.3999 7.05521 2.5151 6.43121 2.7455 5.85521C2.9759 5.26961 3.3407 4.73201 3.8495 4.25201C4.4639 3.64721 5.1359 3.34961 5.8463 3.34961C6.1151 3.34961 6.3839 3.40721 6.6239 3.52241C6.8735 3.63761 7.0943 3.81041 7.2671 4.06001L9.4943 7.19921C9.6671 7.43921 9.7919 7.66001 9.8783 7.87121C9.9647 8.07281 10.0127 8.27441 10.0127 8.45681C10.0127 8.68721 9.9455 8.91761 9.8111 9.13841C9.6863 9.35921 9.5039 9.58961 9.2735 9.82001L8.5439 10.5784C8.4383 10.684 8.3903 10.8088 8.3903 10.9624C8.3903 11.0392 8.3999 11.1064 8.4191 11.1832C8.4479 11.26 8.4767 11.3176 8.4959 11.3752C8.6687 11.692 8.9663 12.1048 9.3887 12.604C9.8207 13.1032 10.2815 13.612 10.7807 14.1208C10.8767 14.2168 10.9823 14.3128 11.0783 14.4088C11.4623 14.7832 11.4719 15.3976 11.0879 15.7816Z" fill="#2EA844"/>
<path d="M21.571 19.0266C21.571 19.2954 21.523 19.5738 21.427 19.8426C21.3982 19.9194 21.3694 19.9962 21.331 20.073C21.1678 20.4186 20.9566 20.745 20.6782 21.0522C20.2078 21.5706 19.6894 21.945 19.1038 22.185C19.0942 22.185 19.0846 22.1946 19.075 22.1946C18.5086 22.425 17.8942 22.5498 17.2318 22.5498C16.2526 22.5498 15.2062 22.3194 14.1022 21.849C12.9982 21.3786 11.8942 20.745 10.7998 19.9482C10.4254 19.6698 10.051 19.3914 9.6958 19.0938L12.835 15.9546C13.1038 16.1562 13.3438 16.3098 13.5454 16.4154C13.5934 16.4346 13.651 16.4634 13.7182 16.4922C13.795 16.521 13.8718 16.5306 13.9582 16.5306C14.1214 16.5306 14.2462 16.473 14.3518 16.3674L15.0814 15.6474C15.3214 15.4074 15.5518 15.225 15.7726 15.1098C15.9934 14.9754 16.2142 14.9082 16.4542 14.9082C16.6366 14.9082 16.8286 14.9466 17.0398 15.033C17.251 15.1194 17.4718 15.2442 17.7118 15.4074L20.8894 17.6634C21.139 17.8362 21.3118 18.0378 21.4174 18.2778C21.5134 18.5178 21.571 18.7578 21.571 19.0266Z" fill="#2EA844"/>
</svg>

<svg width="24" height="25" fill="none" xmlns="http://www.w3.org/2000/svg"><path d="M11.088 15.782l-1.776 1.776a.965.965 0 01-1.354.01c-.105-.106-.21-.202-.317-.308a27.277 27.277 0 01-2.678-3.14c-.787-1.094-1.42-2.188-1.881-3.273C2.63 9.753 2.4 8.707 2.4 7.708c0-.653.115-1.277.345-1.853A4.419 4.419 0 013.85 4.252c.615-.605 1.287-.902 1.997-.902.27 0 .538.057.778.172.25.116.47.288.643.538L9.494 7.2c.173.24.298.46.384.671.087.202.135.403.135.586 0 .23-.068.46-.202.681a3.267 3.267 0 01-.537.682l-.73.758a.514.514 0 00-.154.384c0 .077.01.144.03.221.028.077.057.135.076.192.173.317.47.73.893 1.229.432.5.893 1.008 1.392 1.517.096.096.201.192.297.288a.962.962 0 01.01 1.373zm10.483 3.245c0 .268-.048.547-.144.816-.029.076-.058.153-.096.23a3.961 3.961 0 01-.653.98c-.47.518-.989.892-1.574 1.132-.01 0-.02.01-.029.01a4.85 4.85 0 01-1.843.355c-.98 0-2.026-.23-3.13-.701a16.862 16.862 0 01-3.302-1.9c-.375-.28-.749-.558-1.104-.855l3.139-3.14c.269.202.509.356.71.461.048.02.106.048.173.077a.663.663 0 00.24.039.528.528 0 00.394-.164l.73-.72c.24-.24.47-.422.69-.537.221-.135.442-.202.682-.202.183 0 .375.039.586.125.211.086.432.211.672.374l3.177 2.256c.25.173.423.375.528.615.096.24.154.48.154.749z" fill="#2EA844"/></svg>
